svg/fluentui-system-icons/ic_fluent_pause_24_regular.svg

<svg width="24" height="24" viewBox="0 0 24 24" fill="none" xmlns="http://www.w3.org/2000/svg">
<path d="M6.25 3C5.00736 3 4 4.00736 4 5.25V18.75C4 19.9926 5.00736 21 6.25 21H8.75C9.99264 21 11 19.9926 11 18.75V5.25C11 4.00736 9.99264 3 8.75 3H6.25ZM5.5 5.25C5.5 4.83579 5.83579 4.5 6.25 4.5H8.75C9.16421 4.5 9.5 4.83579 9.5 5.25V18.75C9.5 19.1642 9.16421 19.5 8.75 19.5H6.25C5.83579 19.5 5.5 19.1642 5.5 18.75V5.25ZM15.25 3C14.0074 3 13 4.00736 13 5.25V18.75C13 19.9926 14.0074 21 15.25 21H17.75C18.9926 21 20 19.9926 20 18.75V5.25C20 4.00736 18.9926 3 17.75 3H15.25ZM14.5 5.25C14.5 4.83579 14.8358 4.5 15.25 4.5H17.75C18.1642 4.5 18.5 4.83579 18.5 5.25V18.75C18.5 19.1642 18.1642 19.5 17.75 19.5H15.25C14.8358 19.5 14.5 19.1642 14.5 18.75V5.25Z" fill="#212121"/>
</svg>

<svg xmlns="http://www.w3.org/2000/svg" width="24" height="24"><path d="M6.25 3A2.25 2.25 0 0 0 4 5.25v13.5A2.25 2.25 0 0 0 6.25 21h2.5A2.25 2.25 0 0 0 11 18.75V5.25A2.25 2.25 0 0 0 8.75 3h-2.5ZM5.5 5.25a.75.75 0 0 1 .75-.75h2.5a.75.75 0 0 1 .75.75v13.5a.75.75 0 0 1-.75.75h-2.5a.75.75 0 0 1-.75-.75V5.25ZM15.25 3A2.25 2.25 0 0 0 13 5.25v13.5A2.25 2.25 0 0 0 15.25 21h2.5A2.25 2.25 0 0 0 20 18.75V5.25A2.25 2.25 0 0 0 17.75 3h-2.5Zm-.75 2.25a.75.75 0 0 1 .75-.75h2.5a.75.75 0 0 1 .75.75v13.5a.75.75 0 0 1-.75.75h-2.5a.75.75 0 0 1-.75-.75V5.25Z"/></svg>
